X:1
T:A qui me dois
T:Geert van Turnhout
T:Source : La fleur des chansons à 3---Louvain---P.Phalèse---1574. Editor : André Vierendeels (08/09/18) Notes : Original clefs : G2, C2, C3 Original note values have been halved Editorial accidentals above the staff
T:A qui me dois
T:©
T:©
T:©
T:©
T:©
T:©
T:©
C:Geert van Turnhout
Z:©
%%score [ 1 2 3 ]
L:1/8
Q:1/4=120
M:2/2
K:F
V:1 treble nm="Soprano" snm="S"
V:2 treble nm="Alto" snm="A"
V:3 treble-8 nm="Tenor" snm="T"
V:1
 z8 | z4 c2 cB | A2 c2 F2 A2 | G4 z2 G2 | A2 c2 c2 B2 | c2 B2 c4 | G4 z4 | z2 F2 G2 B2 | %8
w: |A qui me|dois ie re- ti-|rer, puis-|que mon a- my|m'a lais- sé-|e,|puis- que mon|
 B2 A2 B4- | B2 A2 BAGF | G4 F4 | c4- c4 | z2 c2 d2 f2 | f2 e2 f2 e2 | fedc d4 | ^c4 z2 c2 | %16
w: a- my m'a|_ lais- sé- * * *||e, _|puis- que mon|a- my m'a lais-|sé- * * * *|e, nuit|
 c2 c2 A2 F2 | B2 d2 c2 f2- | fedc d2 f2 | e4 c4 | d2 f4 e2 | f2 c2 d2 e2 | f2- fe d c2 B/A/ | %23
w: et iour ne fais|que plou- rer, que|_ _ _ _ _ plou-|rer, com-|me fem- me|tant de- so- lé-||
 B4 A2 c2 | d2 e2 f4 | e8- | e8 | z2 c2 c2 c2 | A3 B c2 c2 | d4 cBAG | F2 f3 e d2- | d2 c2 B4 | %32
w: * e, tant|de- so- lé-|e,|_|ie puis mau-|di- re la iour-|né- e _ _ _|_ la iour- né-||
 A2 c4 d2 | B2 c2 A2 B2 | A2 GF G4 | F4 z4 | z2 c2 c2 c2 | B2 B2 A4- | A4 z4 | f4 z2 f2 | %40
w: e, que ia-|mais ie l'ai- may|si- * * *|fort,|que ia- mais|ie l'ai- may,|_|que, que|
 f2 f2 e2 e2 | d4 f3 e | d2 cB c4 | B2 GA Bc d2- | dc c4 B2 | c4 z4 | z2 c4 d2- | B2 c2 z2 c2 | %48
w: ia- mais ie l'ai-|may si- *||fort, si _ _ _ _|_ _ _ _|fort,|dont vous|pro- metz, dont|
 d2 B2 c2 A2 | B2 G2 F2 f2- | f2 e2 d4 | c2 z c d2 B2 | c4 A4 | B2 G2 FGAB | c4 z f2 g- | %55
w: vous pro- metz qu'ils|ont grand tort, qu'ils|_ ont grand|tort, dont vous pro-|metz qu'ils|ont grand tort, _ _ _|_ dont vous|
 gefc d f2 e | f8- | f8 | A4 B2 B2 | A8 |] %60
w: _ pro- metz qu'ils ont _ grand|tort,|_|qu'ils ont grand|tort.|
V:2
 F2 FE D2 F2 | B,2 D2 C4 | z2 C2 D2 F2 | F2 E2 F2 E2 | FEDC D4 | C2 G2 F2 E2 | D4 z2 C2 | %7
w: A qui me dois ie|re- ti- rer,|puis- que mon|a- my m'a lais-|sé- * * * *|e, m'a lais- sé-|e, puis-|
 D2 F2 F2 E2 | F4 B,CDE | (3FGA GF F4- | F2 E2 F2 A2 | A2 G2 A2 G2 | A2 A2 A2 GF | G4 F2 c2 | %14
w: que mon a- my|m'a lais- * * *|* * * * * sé-|* * e, puis-|que mon a- my|m'a lais- sé- * *|* e, m'a|
 B2 A4 G2 | A8- | A8 | z2 F2 F2 F2 | D2 B,2 F2 A2 | G4 z2 G2 | B4 G4 | F2 F4 G2 | A2 B3 A A2- | %23
w: lais- sé- *|e,|_|nuit et iour|ne fais que plou-|rer, com-|me fem-|me de- so-|lé- * * *|
 A2 G2 A2 F2- | F2 G2 A2 B2 | G2 z G G2 G2 | E3 F G2 G2 | A4 G2 FE | F4 E2 A2- | A2 G2 A4 | %30
w: * * e, tant|_ de- so- lé-|e, ie puis mau-|di- re la iour-|né- * * *|e, la iour-|* né- e,|
 z2 c4 B2- | B2 A3 G G2 | A4 z2 F2 | G2 E2 F2 G2- | G2 F4 E2 | F2 FG ABcB | A2 G3 F F2- | %37
w: la iour|_ né- * *|e, que|ia- mais ie l'ai-|* may si|fort, l'ai- * * * * *|* may _ si-|
 F2 E2 F4 | z2 c2 c2 c2 | B2 B2 A2 c2- | cB B4 A2 | B4 z2 F2- | F2 F2 F2 E2 |"^b" E2 D2 G3 F | %44
w: * * fort,|que ia- mais|ie l'ai- may si|_ _ _ _|fort, que|_ ia- mais ie|l'ai- may si _|
"^-natural" E2 DC D4 | C2 G2 A2 F2 | G4 F4 | G2 E2 F2 A2- | A B2 G2 A2 F | G F2 E F4 | %50
w: _ _ _ _|fort, dont vous pro-|metz, dont|vous pro- metz, dont|_ vous pro- metz qu'ils|ont grand tort, dont|
 G2 A3 F2 G- | G E2 F2 D DC/B,/ | A,2 C4 D2 | B,2 C2 z2 F2 | G2 E2 F2 B2 | G2 A2 G4 | %56
w: vous pro- metz qu'ils|_ ont grand _ tort, _ _|_ dont vous|pro- metz dont|vous pro- metz qu'ils|ont grand tort,|
 z2 F2 D2 B,2 | F2 F2 D2 B,2 | F2 C2 D2 D2 | C8 |] %60
w: dont vous pro-|metz qu'ils ont grand|tort, qu'ils ont grand|tort.|
V:3
 z8 | z8 | z8 | c2 cB A2 c2 | F2 A2 G4 | z2 G2 A2 c2 |"^-natural" c2 B2 c2 A2 | B3 A G4 | %8
w: |||A qui me dois ie|re- ti- rer,|puis- que mon|a- my m'a lais-|sé- * *|
"^b" F4 f2 fe | d2 f2 B2 d2 | c2 c2 d2 f2 | f2 e2 f2 e2 | f3 e d4 | c4 d2 c2 | dcBA B4 | A8 | %16
w: e, A qui me|dois ie re- ti-|rer, puis- que mon|a- my m'a lais-|sé- * *|* e, m'a|lais- * * * sé-|e,|
 f4 f2 f2 | d2 B2 fedc | B6 F2 | c4 z2 c2 | B4 c4 | F4 z4 | z4 z2 c2 | d2 e2 f3 e | dc c4 B2 | c8 | %26
w: nuit et iour|ne fais _ _ _ _|que plou-|rer, com-|me fem-|me|tant|de- so- lé- *||e,|
 z2 c2 c2 c2 | A3 B c2 c2 | d4 c2 BA | B3 A F2 f2 | f2 f2 d2 d2 | f2 f2 g4 | f8 | z2 c2 d2 B2 | %34
w: ie puis mau-|di- re la iour-|né- * * *|* * e, ie|puis mau- di- re|la iour- né-|e,|que ia- mais|
 c2 d2 c3 B | A2 B2 FGAB | c2 cB A2 GF | G4 F2 f2 | f2 f2 e2 e2 |"^b" d4 f3 e | d2 cB c4 | %41
w: ie l'ai- may _|_ si fort _ _ _|_ si _ _ _ _|_ fort, que|ia- mais ie l'ai-|may si- *||
 B4 z2 B2 | B2 B2 A2 A2 |"^b" G8 | A4 G4 | z2 c4 d2 | B2 c2 z2 B2 | G2 c2 F2 f2 | d2 g2 c2 d2 | %49
w: fort, que|ie l'ai- may si|fort,|si fort,|dont vous|pro- metz, dont|vous pro- metz, dont|vous pro- metz qu'ils|
 B2 c2 F4 | c4 d2 B2 | c2 A2 B2 G2 | F4 z2 f2 | g2 e2 f4 | c4 d2 B2 | c2 A2 B2 c2 | F4 f4 | %57
w: ont grand tort,|dont vous pro-|metz qu'ils ont grand|tort, dont|vous pro- metz,|dont vous pro-|metz qu'ils ont grand|tort, dont|
 d2 B2 f4 | F4 B2 B2 | F8 |] %60
w: vous pro- metz|qu'ils ont grand|tort.|

